X: 6095
T: Captain Campbell
R: strathspey
M: 4/4
K: Aminor
|:A>G|E<AA>B c>AB<G|D<GG>A B>d c/B/A/G/|
E<AA>B c>Bc<e|d<Bg<B A2:|
|:A>B|A<aa>g e>dc<e|d>eg>e d/c/B/A/ G>B|
[1 A<aa>g e>dc<e|d<Bg<B A2:|
[2 c<Ad>B e>dc<e|d<Bg>B A2||

